img/recomendation/3.svg

<svg width="44" height="44" viewBox="0 0 44 44" fill="none" xmlns="http://www.w3.org/2000/svg">
<g id="solar:health-bold">
<path id="Vector" fill-rule="evenodd" clip-rule="evenodd" d="M16.4304 33.8598C11.0349 29.7257 3.66669 22.8965 3.66669 16.4395C3.66669 5.65216 13.75 1.62433 22 9.955C30.25 1.62433 40.3334 5.65216 40.3334 16.4377C40.3334 22.8965 32.9634 29.7257 27.5697 33.8598C25.1277 35.7298 23.9067 36.6667 22 36.6667C20.0934 36.6667 18.8724 35.7317 16.4304 33.8598ZM30.25 11.4583C30.6147 11.4583 30.9644 11.6032 31.2223 11.8611C31.4802 12.1189 31.625 12.4687 31.625 12.8333V15.125H33.9167C34.2814 15.125 34.6311 15.2699 34.889 15.5277C35.1468 15.7856 35.2917 16.1353 35.2917 16.5C35.2917 16.8647 35.1468 17.2144 34.889 17.4723C34.6311 17.7301 34.2814 17.875 33.9167 17.875H31.625V20.1667C31.625 20.5313 31.4802 20.8811 31.2223 21.1389C30.9644 21.3968 30.6147 21.5417 30.25 21.5417C29.8853 21.5417 29.5356 21.3968 29.2778 21.1389C29.0199 20.8811 28.875 20.5313 28.875 20.1667V17.875H26.5834C26.2187 17.875 25.8689 17.7301 25.6111 17.4723C25.3532 17.2144 25.2084 16.8647 25.2084 16.5C25.2084 16.1353 25.3532 15.7856 25.6111 15.5277C25.8689 15.2699 26.2187 15.125 26.5834 15.125H28.875V12.8333C28.875 12.4687 29.0199 12.1189 29.2778 11.8611C29.5356 11.6032 29.8853 11.4583 30.25 11.4583Z" fill="#13023E"/>
</g>
</svg>

<svg width="44" height="44" viewBox="0 0 44 44" fill="none" xmlns="http://www.w3.org/2000/svg"><g id="solar:health-bold"><path id="Vector" fill-rule="evenodd" clip-rule="evenodd" d="M16.43 33.86C11.035 29.726 3.667 22.897 3.667 16.44 3.667 5.651 13.75 1.623 22 9.954c8.25-8.33 18.333-4.303 18.333 6.483 0 6.459-7.37 13.288-12.763 17.422-2.442 1.87-3.663 2.807-5.57 2.807-1.907 0-3.128-.935-5.57-2.807zm13.82-22.402a1.375 1.375 0 011.375 1.375v2.292h2.292a1.375 1.375 0 010 2.75h-2.292v2.292a1.375 1.375 0 11-2.75 0v-2.292h-2.292a1.375 1.375 0 010-2.75h2.292v-2.292a1.375 1.375 0 011.375-1.375z" fill="#13023E"/></g></svg>
